static/assets/img/icons/theme/general/trash.svg

<svg height="24" viewBox="0 0 24 24" width="24" xmlns="http://www.w3.org/2000/svg"><g fill="none" fill-rule="evenodd"><path d="m0 0h24v24h-24z" opacity="0"/><g fill="#000"><path d="m6 8v12.5c0 .8284271.67157288 1.5 1.5 1.5h9c.8284271 0 1.5-.6715729 1.5-1.5v-12.5z" fill-rule="nonzero"/><path d="m14 4.5v-.5c0-.55228475-.4477153-1-1-1h-2c-.5522847 0-1 .44771525-1 1v.5h-4.5c-.27614237 0-.5.22385763-.5.5v.5c0 .27614237.22385763.5.5.5h13c.2761424 0 .5-.22385763.5-.5v-.5c0-.27614237-.2238576-.5-.5-.5z" opacity=".3"/></g></g></svg>

<svg width="24px" height="24px" viewBox="0 0 24 24" version="1.1" xmlns="http://www.w3.org/2000/svg" xmlns:xlink="http://www.w3.org/1999/xlink">
    <title>Icon For Trash</title>
    <g stroke="none" stroke-width="1" fill="none" fill-rule="evenodd">
        <rect opacity="0" x="0" y="0" width="24" height="24"></rect>
        <path d="M6,8 L6,20.5 C6,21.3284271 6.67157288,22 7.5,22 L16.5,22 C17.3284271,22 18,21.3284271 18,20.5 L18,8 L6,8 Z" fill="#000000" fill-rule="nonzero"></path>
        <path d="M14,4.5 L14,4 C14,3.44771525 13.5522847,3 13,3 L11,3 C10.4477153,3 10,3.44771525 10,4 L10,4.5 L5.5,4.5 C5.22385763,4.5 5,4.72385763 5,5 L5,5.5 C5,5.77614237 5.22385763,6 5.5,6 L18.5,6 C18.7761424,6 19,5.77614237 19,5.5 L19,5 C19,4.72385763 18.7761424,4.5 18.5,4.5 L14,4.5 Z" fill="#000000" opacity="0.3"></path>
    </g>
</svg>
